X:155 
T:Owenmore Polka*, The 
F:file ID: cre.4/155owen
S:BPC < Barrett < Collins
B:CRE4.087: gan ainm
L:1/8
M:2/4
Q:120
R:polka
K:G
d/c/|BD BD|B/A/B/d/ ed|cA f/g/a/f/|gf g/e/d/c/|
BD BD|B/A/B/d/ ed|cA f/g/a/f/|gf g:|
K:D
e|fg/f/ ef/e/|dD FA|Bc/B/ Ag|fg/f/ e2|
fg/f/ ef/e/|dD FA|BB A/g/e/f/|dc d:|

%%%

